front/public/static/landing/security/vanta.svg

<svg fill="none" height="142" viewBox="0 0 192 142" width="192" xmlns="http://www.w3.org/2000/svg"><g fill="#e2e8f0"><path d="m33.8729 38.1756c-.162.0899-.3491.0186-.5304-.0505-.0452-.0172-.0902-.0344-.1342-.0488-.4433-.1459-.9465.0017-1.312.292-.2507.2001-.4425.4617-.5982.7437-.0447.0812-.0798.1692-.1139.2549-.0956.2395-.1837.4602-.4524.4602-.2999 0-.4507-.4157-.4834-.5871-.1762-.9308.2728-1.9665 1.1079-2.4126.835-.446 1.993-.2099 2.533.5675.0836.1205.1549.2567.1647.4035.0098.1467-.0524.3058-.1811.3772z"/><path clip-rule="evenodd" d="m51.7966 67.1964c-2.3781 4.7357-10.2565 9.4582-25.4939 9.4582-6.0666 0-14.8112-.4682-19.47155-6.4142-.39089-.4986-.71048-1.0513-.91453-1.6516-.45317-1.3317-.55397-2.9045.04425-5.7115.96207-4.1001 1.65125-7.413 2.02411-11.0908-1.26364 1.2513-3.44754.624-3.77615-.547 1.21774-.3821 2.1544-1.2563 2.1544-3.4031 0-.0208-.00001-.042-.00002-.0634-.00045-.9295-.00116-2.3743.83753-4.1819-.39089-.9086-.55806-2.3764-.50316-3.1948.08605-1.285.45809-2.456.73999-2.8931 0 0-1.99461-1.8581-1.34067-5.1629.64329-3.4088.1893-5.3392-3.20988-10.9309-.084-.153-.18046-.3219-.28601-.5067-.93962-1.6454-2.59953656-4.5521-2.60101-8.6916.0811282-4.56916.916994-7.02268 2.23225-9.3696 1.82635-2.872468 3.43173-2.84862238 3.97887-2.84049531.0261.0003877.04979.00073964.07099.00073964.91781 0 1.78645.97501267 2.08638 2.62654567.03278.17713.04999.35507.06638.53384.61133 6.83411 2.65923 18.21037 4.93323 18.21037.7761 0 1.2317-.7684 1.4316-1.5917.1439-.7158.0469-1.3162-.0236-1.7523-.0704-.4358-.1143-.7074.1351-.766.5728-.0336 1.6209.852 2.3453 2.7635 1.6075-1.4194 2.1311-4.7707 2.6384-8.0175.0293-.1877.0586-.375.088-.5616.1083-.683.2066-1.62687.3159-2.67529.2738-2.62711.616-5.91098 1.3534-7.39386.313-.666682.758-1.148038 1.3587-1.3210638.2073-.05986204.4269-.0647822.6416-.0467416 2.9843.2533634 4.2791 3.9304954 4.8257 5.4825554.0248.07048.0481.13658.0699.19777 1.0735 3.77377 2.1585 10.92523-.4638 12.18073-.5229.2017-.8752.3559-1.108.4674-.1106.0525-.0762.2165.0459.2222.7261.0336 2.1176.2796 2.8158 1.604.2148.3895.5219.3393.8923.2788.1481-.0242.3064-.05.4729-.05 1.9094 0 3.1714 1.8155 3.2042 3.0127 1.5438.3764 2.7854 1.759 3.2656 3.5467.0909.2443.3351.4231.5449.5576.2862.1853.5746.368.8631.5507 1.2488.7912 2.4992 1.5833 3.5777 2.5892.3187.2911.6228.6051.8547.9684.4548.7151.608 1.586.6047 2.4322.0089.4457.0987.5654.2187.7253.0134.0178.0271.0361.0411.0554 1.3817 1.7458 2.1454 4.1116 1.0055 6.183-.5019.9096-1.2602 1.5042-2.0228 2.1022-.1986.1558-.3974.3117-.5921.4735-.1172.1361-.1408.2655-.1661.4043-.0065.0359-.0132.0724-.0216.1099-.1655.7675-.5482 1.5555-1.0465 2.1665.409.8389.8605 1.9484.3139 3.6335 1.9987 2.3822 1.3521 4.9604 1.1932 5.2875 2.6821.7873 3.4319 8.8547 3.4319 8.8547.2246 1.9025 2.2265 3.5507 4.9087 2.6635.2893-.096.5515.2132.4146.4862zm-29.8977-.9455c1.1464 1.2678 2.7173 2.105 4.3965 2.3781l-.0009.0008c4.3646.6995 8.5562-2.7282 8.4029-7.2072-.0188-.4576-.6973-.5002-.7719-.0475-.1057.6379-.2876 1.2538-.5663 1.8352-1.9003 4.1616-7.567 4.857-10.2983 1.1496-.3131-.5043-.9801-.6592-1.4415-.2525-1.2472 1.0873-3.282.6675-3.9646-.893-.2565-.5265-.3663-1.1382-.2712-1.736.0655-.4633-.5966-.6265-.7507-.1821-.9653 3.3949 2.211 5.9665 5.266 4.9546zm-16.02068-45.3211c-.77358 0-3.30986-4.1165-3.30986-9.9289 0-2.60851.66951-5.3925 1.88643-5.3925.74901 0 .91864 1.59577.95305 2.06893.15641 1.98089.14947 3.70967.14286 5.35697-.01005 2.5044-.01934 4.8206.54714 7.5486.06228.2649-.09751.3469-.21962.3469zm17.00748 6.5936c-.7973.0115-1.5709.3542-2.1347.9332-.3171.3255-1.0235 1.3784-.9547 3.0013-.0114.2386-.3253.3239-.4515.1205-.5089-.9119-.5384-1.8631-.3409-2.565.4384-1.4187 1.6766-2.5979 3.35-2.5979 2.1954 0 2.7461 1.4367 2.8559 1.882.0524.1845-.1754.3206-.3155.1894-.0292-.0272-.0597-.0562-.0916-.0866-.3655-.3481-.9201-.8763-1.917-.8769zm20.5423 9.1236c-.2917 0-.6056.4076-.6859 1.0423-.0406.2093-.0685.4602-.0976.7217-.0951.8563-.2029 1.8269-.8137 1.8269-.2926 0-.4441-.3122-.6603-.758-.1912-.3942-.433-.8929-.868-1.3724-.5439-.5609-1.2212-.8368-1.8671-1.0998-.4957-.2018-.9728-.3961-1.3567-.7059-.4917-.3411-.7842-.761-.7523-1.4818 0 0 .1049-1.148 1.6537-.9381.4032.0422.9433.1151 1.4709.1863.4365.0589.8643.1166 1.199.1548 1.3201.1493 1.6422-.8331 1.6815-1.1669.0785-.727-.6331-1.338-1.1556-1.7866-.0397-.0341-.0783-.0672-.1154-.0994-.6637-.5781-1.3873-1.0972-2.1372-1.563-.136-.0845-.2745-.1722-.413-.2608-1.8807-1.1997-5.2241-3.2079-7.0991-.9151-.672.9004-.9637 1.9377-1.1743 2.7971-.2714 1.0966-.7508 1.7237-1.2128 2.328-.2007.2624-.398.5206-.5737.8111-.9219 1.5228-1.5553 3.2522-1.6037 5.0317-.0082 2.5691 1.58 5.0858 4.1138 6.6586 2.1028 1.1037 3.182 1.1037 4.0244.8782.1541-.0525.4917-.2878.2598-.6773-.0288-.0572-.0936-.1616-.1544-.2596-.0273-.044-.0538-.0868-.0759-.1234-.2401-.442.0885-.8462.5753-.4682.3204.2509.6474.5018 1.0243.6552.3172.1287.6786.1796 1.0064.0927.3835-.1255.5785-.3773.6006-.6987.0222-.3838-.1516-.6806-.4392-.8389-.4376-.2132-1.4062-.7462-1.8151-1.048-.4614-.3231-.9547-.8061-1.126-.9881-.2239-.2382-.3837-.4742-.5172-.6714-.1993-.2942-.3401-.5021-.5481-.5021-.0582.0033-.1147.0361-.1541.0804-.2032.2171-.2184.5653-.2281.7889l-.0022.0467c-.0008.0188-.0012.0389-.0016.0595-.0032.1559-.0071.348-.2065.348-.5605 0-.5589-1.1693-.5581-1.4867 0-.4346.159-1.5621.8302-1.5621.2072 0 .489.2777.5997.3869 1.4791 1.6425 3.1985 2.9203 5.3767 2.9203 1.6676 0 3.0608-.9423 3.9368-1.8254.6859-.6889 1.1374-1.5515 1.1677-2.4429.0189-.565-.2524-2.0747-1.1079-2.0747zm-21.3478-6.7267c.0467.524.4606.8627.985.8159.5237-.0467.8826-.4526.8359-.9775-.0459-.5149-.4712-.8716-.9956-.8249-.5245.0467-.8712.4715-.8253.9865z" fill-rule="evenodd"/><path d="m125.184 137.262c-1.121-1.381-1.733-3.105-1.733-4.884v-12.843c0-9.115-4.294-14.335-11.887-14.335-10.111 0-12.0685 5.511-14.7605 10.201-.1304.226-.4187.307-.6496.183l-.5622-.302c-.2409-.129-.3281-.431-.1923-.668l.7678-1.344c.4849-.833.7445-1.779.7445-2.744v-1.938c0-1.25-1.013-2.264-2.2623-2.264h-11.0101c-1.6581 0-2.5517 1.948-1.4703 3.206l1.604 1.867c1.6172 1.882 2.5064 4.282 2.5064 6.765v13.332c0 1.479-.3159 2.941-.9268 4.288l-1.2747 2.812c-.5822 1.284.3557 2.742 1.7663 2.742h13.7551c1.6387 0 2.5387-1.905 1.4987-3.172l-1.1131-1.356c-1.1356-1.385-1.7575-3.121-1.7575-4.913v-7.356c0-2.568.6141-5.117 1.9006-7.339 1.562-2.697 3.602-4.075 6.154-4.075 3.436 0 5.282 2.448 5.282 6.871v11.949c0 1.444-.301 2.871-.884 4.192l-1.092 2.475c-.566 1.283.372 2.724 1.774 2.724h13.056c1.633 0 2.535-1.896 1.504-3.164l-.739-.91z"/><path d="m149.705 136.213c-.44.087-.871.148-1.249.157-3.549 0-5.256-2.235-5.256-6.833v-18.269h6.461c.748 0 1.354-.606 1.354-1.355v-2.213c0-.748-.606-1.355-1.354-1.355h-8.269c-.232 0-.419-.188-.419-.42v-.62c0-.231.185-.419.416-.42h.84c.535.001.971-.433.971-.97v-4.8324c0-.9219-.747-1.668-1.667-1.668h-4.756c-.866 0-1.633.5615-1.89 1.3894-.549 1.813-1.87 7.542-6.167 7.542h-1.278c-.745 0-1.35.606-1.35 1.355v2.213c0 .75.605 1.356 1.35 1.356h3.94v18.731c0 7.62 3.875 11.825 10.898 11.825 3.506 0 6.684-1.281 8.609-3.59.749-.902-.031-2.249-1.184-2.022z"/><path d="m80.6653 134.836c-2.0933.378-3.5095-1.264-3.5095-3.839v-12.396c0-8.841-5.5995-13.59-16.4759-13.59-9.7408 0-16.393 3.747-16.4107 9.407-.0044 1.016.3767 2.012.9379 2.97.9025 1.386 2.5329 2.316 4.4009 2.316 2.8434 0 5.1488-2.147 5.1488-4.794-.0089-2.715-2.2999-4.091-2.9947-4.35.4937-.421 2.6268-2.066 5.7762-2.066 5.0063 0 7.6873 3.797 7.6873 9.709v2.35c-3.7581 0-7.9723.377-10.9372 1.101-7.2543 1.586-11.0775 5.717-11.0775 10.863 0 5.803 4.6153 9.429 11.9303 9.429 5.077 0 9.2957-1.778 11.273-4.749 1.2493 2.509 4.0187 4.091 7.5801 4.091 4.6064 0 7.019-2.405 7.7812-5.264.1966-.814-.4176-1.324-1.1102-1.189zm-15.4397-2.78c-.3922 2.766-2.3032 4.418-5.0726 4.418-3.0345 0-5.077-2.044-5.077-5.276 0-2.506 1.119-4.697 3.5614-5.752 1.646-.727 4.2143-1.124 6.5882-1.189v7.8z"/><path d="m190.853 134.836c-2.094.378-3.51-1.264-3.51-3.839v-12.396c0-8.841-5.599-13.59-16.476-13.59-9.74 0-16.393 3.747-16.41 9.407-.005 1.016.376 2.012.938 2.97.902 1.386 2.533 2.316 4.4 2.316 2.844 0 5.149-2.147 5.149-4.794-.009-2.715-2.3-4.091-2.994-4.35.493-.421 2.626-2.066 5.776-2.066 5.006 0 7.687 3.797 7.687 9.709v2.35c-3.758 0-7.972.377-10.937 1.101-7.254 1.586-11.078 5.717-11.078 10.863 0 5.803 4.616 9.429 11.931 9.429 5.077 0 9.295-1.778 11.273-4.749 1.249 2.509 4.018 4.091 7.58 4.091 4.606 0 7.019-2.405 7.781-5.264.197-.814-.418-1.324-1.11-1.189zm-15.44-2.78c-.392 2.766-2.303 4.418-5.073 4.418-3.034 0-5.076-2.044-5.076-5.276 0-2.506 1.119-4.697 3.561-5.752 1.646-.727 4.214-1.124 6.588-1.189v7.8z"/><path d="m45.0836 94.6545h-5.9784c-1.2869 0-2.0569 1.4315-1.3499 2.506l1.024 1.5575c.8749 1.331 1.0461 3.004.4584 4.485l-10.725 26.994c-.4938 1.3-.9942 2.191-1.2207 2.41-.1215.117-.3248.153-.4827.034l-.5656-.449c-.1801-.135-.169-.331-.0044-.516.3148-.417.5103-.921.6197-1.38.1314-.551.0873-1.129-.1138-1.658l-9.0825-24.026c-.5998-1.585-.5766-3.339.0652-4.9091l.9699-2.3722c.5225-1.2767-.4164-2.6762-1.7951-2.6762h-14.6355c-1.971808 0-3.000239 2.3479-1.663609 3.7982l.931219 1.0114c1.71111 1.8579 3.06321 4.0159 3.98891 6.3659l13.04038 34.104c.3414.865 1.1754 1.433 2.1055 1.433h7.2211c.9279 0 1.762-.567 2.1033-1.429l16.8923-42.6261c.5049-1.2745-.433-2.6563-1.8027-2.6563z"/></g></svg>

<svg width="192" height="142" viewBox="0 0 192 142" fill="none" xmlns="http://www.w3.org/2000/svg">
<path d="M33.8729 38.1756C33.7109 38.2655 33.5238 38.1942 33.3425 38.1251C33.2973 38.1079 33.2523 38.0907 33.2083 38.0763C32.765 37.9304 32.2618 38.078 31.8963 38.3683C31.6456 38.5684 31.4538 38.83 31.2981 39.112C31.2534 39.1932 31.2183 39.2812 31.1842 39.3669C31.0886 39.6064 31.0005 39.8271 30.7318 39.8271C30.4319 39.8271 30.2811 39.4114 30.2484 39.24C30.0722 38.3092 30.5212 37.2735 31.3563 36.8274C32.1913 36.3814 33.3493 36.6175 33.8893 37.3949C33.9729 37.5154 34.0442 37.6516 34.054 37.7984C34.0638 37.9451 34.0016 38.1042 33.8729 38.1756Z" fill="#E2E8F0"/>
<path fill-rule="evenodd" clip-rule="evenodd" d="M51.7966 67.1964C49.4185 71.9321 41.5401 76.6546 26.3027 76.6546C20.2361 76.6546 11.4915 76.1864 6.83115 70.2404C6.44026 69.7418 6.12067 69.1891 5.91662 68.5888C5.46345 67.2571 5.36265 65.6843 5.96087 62.8773C6.92294 58.7772 7.61212 55.4643 7.98498 51.7865C6.72134 53.0378 4.53744 52.4105 4.20883 51.2395C5.42657 50.8574 6.36323 49.9832 6.36323 47.8364C6.36323 47.8156 6.36322 47.7944 6.36321 47.773C6.36276 46.8435 6.36205 45.3987 7.20074 43.5911C6.80985 42.6825 6.64268 41.2147 6.69758 40.3963C6.78363 39.1113 7.15567 37.9403 7.43757 37.5032C7.43757 37.5032 5.44296 35.6451 6.0969 32.3403C6.74019 28.9315 6.2862 27.0011 2.88702 21.4094C2.80302 21.2564 2.70656 21.0875 2.60101 20.9027C1.66139 19.2573 0.00147344 16.3506 0 12.2111C0.0811282 7.64194 0.916994 5.18842 2.23225 2.8415C4.0586 -0.030968 5.66398 -0.00712238 6.21112 0.00100469C6.23722 0.00139239 6.26091 0.00174433 6.28211 0.00174433C7.19992 0.00174433 8.06856 0.976757 8.36849 2.62829C8.40127 2.80542 8.41848 2.98336 8.43487 3.16213C9.0462 9.99624 11.0941 21.3725 13.3681 21.3725C14.1442 21.3725 14.5998 20.6041 14.7997 19.7808C14.9436 19.065 14.8466 18.4646 14.7761 18.0285C14.7057 17.5927 14.6618 17.3211 14.9112 17.2625C15.484 17.2289 16.5321 18.1145 17.2565 20.026C18.864 18.6066 19.3876 15.2553 19.8949 12.0085C19.9242 11.8208 19.9535 11.6335 19.9829 11.4469C20.0912 10.7639 20.1895 9.82003 20.2988 8.77161C20.5726 6.1445 20.9148 2.86063 21.6522 1.37775C21.9652 0.711068 22.4102 0.229712 23.0109 0.0566862C23.2182 -0.00317584 23.4378 -0.008096 23.6525 0.0099446C26.6368 0.263308 27.9316 3.94044 28.4782 5.4925C28.503 5.56298 28.5263 5.62908 28.5481 5.69027C29.6216 9.46404 30.7066 16.6155 28.0843 17.871C27.5614 18.0727 27.2091 18.2269 26.9763 18.3384C26.8657 18.3909 26.9001 18.5549 27.0222 18.5606C27.7483 18.5942 29.1398 18.8402 29.838 20.1646C30.0528 20.5541 30.3599 20.5039 30.7303 20.4434C30.8784 20.4192 31.0367 20.3934 31.2032 20.3934C33.1126 20.3934 34.3746 22.2089 34.4074 23.4061C35.9512 23.7825 37.1928 25.1651 37.673 26.9528C37.7639 27.1971 38.0081 27.3759 38.2179 27.5104C38.5041 27.6957 38.7925 27.8784 39.081 28.0611C40.3298 28.8523 41.5802 29.6444 42.6587 30.6503C42.9774 30.9414 43.2815 31.2554 43.5134 31.6187C43.9682 32.3338 44.1214 33.2047 44.1181 34.0509C44.127 34.4966 44.2168 34.6163 44.3368 34.7762C44.3502 34.794 44.3639 34.8123 44.3779 34.8316C45.7596 36.5774 46.5233 38.9432 45.3834 41.0146C44.8815 41.9242 44.1232 42.5188 43.3606 43.1168C43.162 43.2726 42.9632 43.4285 42.7685 43.5903C42.6513 43.7264 42.6277 43.8558 42.6024 43.9946C42.5959 44.0305 42.5892 44.067 42.5808 44.1045C42.4153 44.872 42.0326 45.66 41.5343 46.271C41.9433 47.1099 42.3948 48.2194 41.8482 49.9045C43.8469 52.2867 43.2003 54.8649 43.0414 55.192C45.7235 55.9793 46.4733 64.0467 46.4733 64.0467C46.6979 65.9492 48.6998 67.5974 51.382 66.7102C51.6713 66.6142 51.9335 66.9234 51.7966 67.1964ZM21.8989 66.2509C23.0453 67.5187 24.6162 68.3559 26.2954 68.629L26.2945 68.6298C30.6591 69.3293 34.8507 65.9016 34.6974 61.4226C34.6786 60.965 34.0001 60.9224 33.9255 61.3751C33.8198 62.013 33.6379 62.6289 33.3592 63.2103C31.4589 67.3719 25.7922 68.0673 23.0609 64.3599C22.7478 63.8556 22.0808 63.7007 21.6194 64.1074C20.3722 65.1947 18.3374 64.7749 17.6548 63.2144C17.3983 62.6879 17.2885 62.0762 17.3836 61.4784C17.4491 61.0151 16.787 60.8519 16.6329 61.2963C15.6676 64.6912 18.8439 67.2628 21.8989 66.2509ZM5.87822 20.9298C5.10464 20.9298 2.56836 16.8133 2.56836 11.0009C2.56836 8.39239 3.23787 5.6084 4.45479 5.6084C5.2038 5.6084 5.37343 7.20417 5.40784 7.67733C5.56425 9.65822 5.55731 11.387 5.5507 13.0343C5.54065 15.5387 5.53136 17.8549 6.09784 20.5829C6.16012 20.8478 6.00033 20.9298 5.87822 20.9298ZM22.8857 27.5234C22.0884 27.5349 21.3148 27.8776 20.751 28.4566C20.4339 28.7821 19.7275 29.835 19.7963 31.4579C19.7849 31.6965 19.471 31.7818 19.3448 31.5784C18.8359 30.6665 18.8064 29.7153 19.0039 29.0134C19.4423 27.5947 20.6805 26.4155 22.3539 26.4155C24.5493 26.4155 25.1 27.8522 25.2098 28.2975C25.2622 28.482 25.0344 28.6181 24.8943 28.4869C24.8651 28.4597 24.8346 28.4307 24.8027 28.4003C24.4372 28.0522 23.8826 27.524 22.8857 27.5234ZM43.428 36.647C43.1363 36.647 42.8224 37.0546 42.7421 37.6893C42.7015 37.8986 42.6736 38.1495 42.6445 38.411C42.5494 39.2673 42.4416 40.2379 41.8308 40.2379C41.5382 40.2379 41.3867 39.9257 41.1705 39.4799C40.9793 39.0857 40.7375 38.587 40.3025 38.1075C39.7586 37.5466 39.0813 37.2707 38.4354 37.0077C37.9397 36.8059 37.4626 36.6116 37.0787 36.3018C36.587 35.9607 36.2945 35.5408 36.3264 34.82C36.3264 34.82 36.4313 33.672 37.9801 33.8819C38.3833 33.9241 38.9234 33.997 39.451 34.0682C39.8875 34.1271 40.3153 34.1848 40.65 34.223C41.9701 34.3723 42.2922 33.3899 42.3315 33.0561C42.41 32.3291 41.6984 31.7181 41.1759 31.2695C41.1362 31.2354 41.0976 31.2023 41.0605 31.1701C40.3968 30.592 39.6732 30.0729 38.9233 29.6071C38.7873 29.5226 38.6488 29.4349 38.5103 29.3463C36.6296 28.1466 33.2862 26.1384 31.4112 28.4312C30.7392 29.3316 30.4475 30.3689 30.2369 31.2283C29.9655 32.3249 29.4861 32.952 29.0241 33.5563C28.8234 33.8187 28.6261 34.0769 28.4504 34.3674C27.5285 35.8902 26.8951 37.6196 26.8467 39.3991C26.8385 41.9682 28.4267 44.4849 30.9605 46.0577C33.0633 47.1614 34.1425 47.1614 34.9849 46.9359C35.139 46.8834 35.4766 46.6481 35.2447 46.2586C35.2159 46.2014 35.1511 46.097 35.0903 45.999C35.063 45.955 35.0365 45.9122 35.0144 45.8756C34.7743 45.4336 35.1029 45.0294 35.5897 45.4074C35.9101 45.6583 36.2371 45.9092 36.614 46.0626C36.9312 46.1913 37.2926 46.2422 37.6204 46.1553C38.0039 46.0298 38.1989 45.778 38.221 45.4566C38.2432 45.0728 38.0694 44.776 37.7818 44.6177C37.3442 44.4045 36.3756 43.8715 35.9667 43.5697C35.5053 43.2466 35.012 42.7636 34.8407 42.5816C34.6168 42.3434 34.457 42.1074 34.3235 41.9102C34.1242 41.616 33.9834 41.4081 33.7754 41.4081C33.7172 41.4114 33.6607 41.4442 33.6213 41.4885C33.4181 41.7056 33.4029 42.0538 33.3932 42.2774L33.391 42.3241C33.3902 42.3429 33.3898 42.363 33.3894 42.3836C33.3862 42.5395 33.3823 42.7316 33.1829 42.7316C32.6224 42.7316 32.624 41.5623 32.6248 41.2449C32.6248 40.8103 32.7838 39.6828 33.455 39.6828C33.6622 39.6828 33.944 39.9605 34.0547 40.0697C35.5338 41.7122 37.2532 42.99 39.4314 42.99C41.099 42.99 42.4922 42.0477 43.3682 41.1646C44.0541 40.4757 44.5056 39.6131 44.5359 38.7217C44.5548 38.1567 44.2835 36.647 43.428 36.647ZM22.0802 29.9203C22.1269 30.4443 22.5408 30.783 23.0652 30.7362C23.5889 30.6895 23.9478 30.2836 23.9011 29.7587C23.8552 29.2438 23.4299 28.8871 22.9055 28.9338C22.381 28.9805 22.0343 29.4053 22.0802 29.9203Z" fill="#E2E8F0"/>
<path d="M125.184 137.262C124.063 135.881 123.451 134.157 123.451 132.378V119.535C123.451 110.42 119.157 105.2 111.564 105.2C101.453 105.2 99.4955 110.711 96.8035 115.401C96.6731 115.627 96.3848 115.708 96.1539 115.584L95.5917 115.282C95.3508 115.153 95.2636 114.851 95.3994 114.614L96.1672 113.27C96.6521 112.437 96.9117 111.491 96.9117 110.526V108.588C96.9117 107.338 95.8987 106.324 94.6494 106.324H83.6393C81.9812 106.324 81.0876 108.272 82.169 109.53L83.773 111.397C85.3902 113.279 86.2794 115.679 86.2794 118.162V131.494C86.2794 132.973 85.9635 134.435 85.3526 135.782L84.0779 138.594C83.4957 139.878 84.4336 141.336 85.8442 141.336H99.5993C101.238 141.336 102.138 139.431 101.098 138.164L99.9849 136.808C98.8493 135.423 98.2274 133.687 98.2274 131.895V124.539C98.2274 121.971 98.8415 119.422 100.128 117.2C101.69 114.503 103.73 113.125 106.282 113.125C109.718 113.125 111.564 115.573 111.564 119.996V131.945C111.564 133.389 111.263 134.816 110.68 136.137L109.588 138.612C109.022 139.895 109.96 141.336 111.362 141.336H124.418C126.051 141.336 126.953 139.44 125.922 138.172L125.183 137.262H125.184Z" fill="#E2E8F0"/>
<path d="M149.705 136.213C149.265 136.3 148.834 136.361 148.456 136.37C144.907 136.37 143.2 134.135 143.2 129.537V111.268H149.661C150.409 111.268 151.015 110.662 151.015 109.913V107.7C151.015 106.952 150.409 106.345 149.661 106.345H141.392C141.16 106.345 140.973 106.157 140.973 105.925V105.305C140.973 105.074 141.158 104.886 141.389 104.885H142.229C142.764 104.886 143.2 104.452 143.2 103.915V99.0826C143.2 98.1607 142.453 97.4146 141.533 97.4146H136.777C135.911 97.4146 135.144 97.9761 134.887 98.804C134.338 100.617 133.017 106.346 128.72 106.346H127.442C126.697 106.346 126.092 106.952 126.092 107.701V109.914C126.092 110.664 126.697 111.27 127.442 111.27H131.382V130.001C131.382 137.621 135.257 141.826 142.28 141.826C145.786 141.826 148.964 140.545 150.889 138.236C151.638 137.334 150.858 135.987 149.705 136.214V136.213Z" fill="#E2E8F0"/>
<path d="M80.6653 134.836C78.572 135.214 77.1558 133.572 77.1558 130.997V118.601C77.1558 109.76 71.5563 105.011 60.6799 105.011C50.9391 105.011 44.2869 108.758 44.2692 114.418C44.2648 115.434 44.6459 116.43 45.2071 117.388C46.1096 118.774 47.74 119.704 49.608 119.704C52.4514 119.704 54.7568 117.557 54.7568 114.91C54.7479 112.195 52.4569 110.819 51.7621 110.56C52.2558 110.139 54.3889 108.494 57.5383 108.494C62.5446 108.494 65.2256 112.291 65.2256 118.203V120.553C61.4675 120.553 57.2533 120.93 54.2884 121.654C47.0341 123.24 43.2109 127.371 43.2109 132.517C43.2109 138.32 47.8262 141.946 55.1412 141.946C60.2182 141.946 64.4369 140.168 66.4142 137.197C67.6635 139.706 70.4329 141.288 73.9943 141.288C78.6007 141.288 81.0133 138.883 81.7755 136.024C81.9721 135.21 81.3579 134.7 80.6653 134.835V134.836ZM65.2256 132.056C64.8334 134.822 62.9224 136.474 60.153 136.474C57.1185 136.474 55.076 134.43 55.076 131.198C55.076 128.692 56.195 126.501 58.6374 125.446C60.2834 124.719 62.8517 124.322 65.2256 124.257V132.057V132.056Z" fill="#E2E8F0"/>
<path d="M190.853 134.836C188.759 135.214 187.343 133.572 187.343 130.997V118.601C187.343 109.76 181.744 105.011 170.867 105.011C161.127 105.011 154.474 108.758 154.457 114.418C154.452 115.434 154.833 116.43 155.395 117.388C156.297 118.774 157.928 119.704 159.795 119.704C162.639 119.704 164.944 117.557 164.944 114.91C164.935 112.195 162.644 110.819 161.95 110.56C162.443 110.139 164.576 108.494 167.726 108.494C172.732 108.494 175.413 112.291 175.413 118.203V120.553C171.655 120.553 167.441 120.93 164.476 121.654C157.222 123.24 153.398 127.371 153.398 132.517C153.398 138.32 158.014 141.946 165.329 141.946C170.406 141.946 174.624 140.168 176.602 137.197C177.851 139.706 180.62 141.288 184.182 141.288C188.788 141.288 191.201 138.883 191.963 136.024C192.16 135.21 191.545 134.7 190.853 134.835V134.836ZM175.413 132.056C175.021 134.822 173.11 136.474 170.34 136.474C167.306 136.474 165.264 134.43 165.264 131.198C165.264 128.692 166.383 126.501 168.825 125.446C170.471 124.719 173.039 124.322 175.413 124.257V132.057V132.056Z" fill="#E2E8F0"/>
<path d="M45.0836 94.6545H39.1052C37.8183 94.6545 37.0483 96.086 37.7553 97.1605L38.7793 98.718C39.6542 100.049 39.8254 101.722 39.2377 103.203L28.5127 130.197C28.0189 131.497 27.5185 132.388 27.292 132.607C27.1705 132.724 26.9672 132.76 26.8093 132.641L26.2437 132.192C26.0636 132.057 26.0747 131.861 26.2393 131.676C26.5541 131.259 26.7496 130.755 26.859 130.296C26.9904 129.745 26.9463 129.167 26.7452 128.638L17.6627 104.612C17.0629 103.027 17.0861 101.273 17.7279 99.7029L18.6978 97.3307C19.2203 96.054 18.2814 94.6545 16.9027 94.6545H2.2672C0.295392 94.6545 -0.733039 97.0024 0.603591 98.4527L1.53481 99.4641C3.24592 101.322 4.59802 103.48 5.52372 105.83L18.5641 139.934C18.9055 140.799 19.7395 141.367 20.6696 141.367H27.8907C28.8186 141.367 29.6527 140.8 29.994 139.938L46.8863 97.3119C47.3912 96.0374 46.4533 94.6556 45.0836 94.6556V94.6545Z" fill="#E2E8F0"/>
</svg>
